Origami/32x32/apps/vmpk.svg

<svg width="32" height="32" version="1" xmlns="http://www.w3.org/2000/svg">
 <path d="M 28,28.611175 V 6.3884402 C 28,5.6194135 27.442592,5 26.75,5 H 4.25 C 3.5575,5 3,5.6194135 3,6.3888248 V 28.611559 C 3,29.380779 3.5575,30 4.25,30 h 22.5 C 27.442592,30 28,29.380779 28,28.611559 Z" style="opacity:.2"/>
 <path d="M 28,27.611175 V 5.3884402 C 28,4.6194135 27.442592,4 26.75,4 H 4.25 C 3.5575,4 3,4.6194135 3,5.3888248 V 27.611559 C 3,28.380779 3.5575,29 4.25,29 h 22.5 C 27.442592,29 28,28.380779 28,27.611559 Z" style="fill:#4f4f4f"/>
 <rect x="5" y="7" width="3" height="21" ry="1" style="opacity:.2"/>
 <rect x="5" y="6" width="3" height="21" ry="1" style="fill:#d8d8d8"/>
 <rect x="8" y="7" width="3" height="21" ry="1" style="opacity:.2"/>
 <rect x="8" y="6" width="3" height="21" ry="1" style="fill:#f0f0f0"/>
 <rect x="11" y="7" width="3" height="21" ry="1" style="opacity:.2"/>
 <rect x="11" y="6" width="3" height="21" ry="1" style="fill:#d8d8d8"/>
 <rect x="14" y="7" width="3" height="21" ry="1" style="opacity:.2"/>
 <rect x="14" y="6" width="3" height="21" ry="1" style="fill:#f0f0f0"/>
 <rect x="17" y="7" width="3" height="21" ry="1" style="opacity:.2"/>
 <rect x="17" y="6" width="3" height="21" ry="1" style="fill:#d8d8d8"/>
 <rect x="20" y="7" width="3" height="21" ry="1" style="opacity:.2"/>
 <rect x="20" y="6" width="3" height="21" ry="1" style="fill:#f0f0f0"/>
 <rect x="23" y="7" width="3" height="21" ry="1" style="opacity:.2"/>
 <rect x="23" y="6" width="3" height="21" ry="1" style="fill:#d8d8d8"/>
 <path d="m7 16.285v1c0 0.396 0.2219 0.715 0.4961 0.715h1.0098c0.2742 0 0.4941-0.319 0.4941-0.715v-1c0 0.396-0.2199 0.715-0.4941 0.715h-1.0098c-0.2742 0-0.4961-0.319-0.4961-0.715zm3 0v1c0 0.396 0.22 0.715 0.494 0.715h1.0117c0.274 0 0.494-0.319 0.494-0.715v-1c0 0.396-0.22 0.715-0.494 0.715h-1.0117c-0.274 0-0.494-0.319-0.494-0.715zm6 0v1c0 0.396 0.22 0.715 0.494 0.715h1.0117c0.274 0 0.494-0.319 0.494-0.715v-1c0 0.396-0.22 0.715-0.494 0.715h-1.0117c-0.274 0-0.494-0.319-0.494-0.715zm3 0v1c0 0.396 0.22 0.715 0.494 0.715h1.0117c0.274 0 0.494-0.319 0.494-0.715v-1c0 0.396-0.22 0.715-0.494 0.715h-1.0117c-0.274 0-0.494-0.319-0.494-0.715zm3 0v1c0 0.396 0.22 0.715 0.494 0.715h1.0117c0.274 0 0.494-0.319 0.494-0.715v-1c0 0.396-0.22 0.715-0.494 0.715h-1.0117c-0.274 0-0.494-0.319-0.494-0.715z" style="opacity:.2"/>
 <path d="m7.4961 5c-0.2742 0-0.4961 0.3187-0.4961 0.7148v10.5697c0 0.396 0.2219 0.715 0.4961 0.715h1.0098c0.2742 0 0.4941-0.319 0.4941-0.715v-10.5697c0-0.3963-0.2199-0.715-0.4941-0.715h-1.0098zm2.9979 0c-0.274 0-0.494 0.3187-0.494 0.7148v10.5697c0 0.396 0.22 0.715 0.494 0.715h1.0117c0.274 0 0.494-0.319 0.494-0.715v-10.5697c0-0.3963-0.22-0.715-0.494-0.715h-1.0117zm6 0c-0.274 0-0.494 0.3187-0.494 0.7148v10.5697c0 0.396 0.22 0.715 0.494 0.715h1.0117c0.274 0 0.494-0.319 0.494-0.715v-10.5697c0-0.3963-0.22-0.715-0.494-0.715h-1.0117zm3 0c-0.274 0-0.494 0.3187-0.494 0.7148v10.5697c0 0.396 0.22 0.715 0.494 0.715h1.0117c0.274 0 0.494-0.319 0.494-0.715v-10.5697c0-0.3963-0.22-0.715-0.494-0.715h-1.0117zm3 0c-0.274 0-0.494 0.3187-0.494 0.7148v10.5697c0 0.396 0.22 0.715 0.494 0.715h1.0117c0.274 0 0.494-0.319 0.494-0.715v-10.5697c0-0.3963-0.22-0.715-0.494-0.715h-1.0117z" style="fill:#4f4f4f"/>
 <path d="m7.4961 5c-0.2742 0-0.4961 0.3187-0.4961 0.7148v1c0-0.3961 0.2219-0.7148 0.4961-0.7148h1.0098c0.2742 0 0.4941 0.3187 0.4941 0.7148v-1c0-0.3961-0.2199-0.7148-0.4941-0.7148h-1.0098zm2.9979 0c-0.274 0-0.494 0.3187-0.494 0.7148v1c0-0.3961 0.22-0.7148 0.494-0.7148h1.0117c0.274 0 0.494 0.3187 0.494 0.7148v-1c0-0.3961-0.22-0.7148-0.494-0.7148h-1.0117zm6 0c-0.274 0-0.494 0.3187-0.494 0.7148v1c0-0.3961 0.22-0.7148 0.494-0.7148h1.0117c0.274 0 0.494 0.3187 0.494 0.7148v-1c0-0.3961-0.22-0.7148-0.494-0.7148h-1.0117zm3 0c-0.274 0-0.494 0.3187-0.494 0.7148v1c0-0.3961 0.22-0.7148 0.494-0.7148h1.0117c0.274 0 0.494 0.3187 0.494 0.7148v-1c0-0.3961-0.22-0.7148-0.494-0.7148h-1.0117zm3 0c-0.274 0-0.494 0.3187-0.494 0.7148v1c0-0.3961 0.22-0.7148 0.494-0.7148h1.0117c0.274 0 0.494 0.3187 0.494 0.7148v-1c0-0.3961-0.22-0.7148-0.494-0.7148h-1.0117z" fill="#fff" opacity=".1"/>
 <path d="m4.25 4c-0.6925 0-1.25 0.6192606-1.25 1.3886719v1c0-0.7694113 0.5575-1.3886719 1.25-1.3886719h22.5c0.692592 0 1.25 0.6196452 1.25 1.3886719v-1c0-0.7690267-0.557408-1.3886719-1.25-1.3886719h-22.5z" style="fill:#ffffff;opacity:.1"/>
</svg>

<svg xmlns="http://www.w3.org/2000/svg" width="32" height="32" version="1">
 <path style="opacity:0.2" d="M 28,28.611175 V 6.3884402 C 28,5.6194135 27.442592,5 26.75,5 H 4.25 C 3.5575,5 3,5.6194135 3,6.3888248 V 28.611559 C 3,29.380779 3.5575,30 4.25,30 h 22.5 C 27.442592,30 28,29.380779 28,28.611559 Z"/>
 <path style="fill:#4f4f4f" d="M 28,27.611175 V 5.3884402 C 28,4.6194135 27.442592,4 26.75,4 H 4.25 C 3.5575,4 3,4.6194135 3,5.3888248 V 27.611559 C 3,28.380779 3.5575,29 4.25,29 h 22.5 C 27.442592,29 28,28.380779 28,27.611559 Z"/>
 <rect style="opacity:0.2" width="3" height="21" x="5" y="7" ry="1"/>
 <rect style="fill:#d8d8d8" width="3" height="21" x="5" y="6" ry="1"/>
 <rect style="opacity:0.2" width="3" height="21" x="8" y="7" ry="1"/>
 <rect style="fill:#f0f0f0" width="3" height="21" x="8" y="6" ry="1"/>
 <rect style="opacity:0.2" width="3" height="21" x="11" y="7" ry="1"/>
 <rect style="fill:#d8d8d8" width="3" height="21" x="11" y="6" ry="1"/>
 <rect style="opacity:0.2" width="3" height="21" x="14" y="7" ry="1"/>
 <rect style="fill:#f0f0f0" width="3" height="21" x="14" y="6" ry="1"/>
 <rect style="opacity:0.2" width="3" height="21" x="17" y="7" ry="1"/>
 <rect style="fill:#d8d8d8" width="3" height="21" x="17" y="6" ry="1"/>
 <rect style="opacity:0.2" width="3" height="21" x="20" y="7" ry="1"/>
 <rect style="fill:#f0f0f0" width="3" height="21" x="20" y="6" ry="1"/>
 <rect style="opacity:0.2" width="3" height="21" x="23" y="7" ry="1"/>
 <rect style="fill:#d8d8d8" width="3" height="21" x="23" y="6" ry="1"/>
 <path style="opacity:0.2" d="m 7,16.285 v 1 C 7,17.681 7.2219,18 7.4961,18 H 8.5059 C 8.7801,18 9,17.681 9,17.285 v -1 C 9,16.681 8.7801,17 8.5059,17 H 7.4961 C 7.2219,17 7,16.681 7,16.285 Z m 3,0 v 1 C 10,17.681 10.22,18 10.494,18 h 1.0117 c 0.274,0 0.494,-0.319 0.494,-0.715 v -1 c 0,0.396 -0.22,0.715 -0.494,0.715 H 10.494 C 10.22,17 10,16.681 10,16.285 Z m 6,0 v 1 C 16,17.681 16.22,18 16.494,18 h 1.0117 c 0.274,0 0.494,-0.319 0.494,-0.715 v -1 c 0,0.396 -0.22,0.715 -0.494,0.715 H 16.494 C 16.22,17 16,16.681 16,16.285 Z m 3,0 v 1 C 19,17.681 19.22,18 19.494,18 h 1.0117 c 0.274,0 0.494,-0.319 0.494,-0.715 v -1 c 0,0.396 -0.22,0.715 -0.494,0.715 H 19.494 C 19.22,17 19,16.681 19,16.285 Z m 3,0 v 1 C 22,17.681 22.22,18 22.494,18 h 1.0117 c 0.274,0 0.494,-0.319 0.494,-0.715 v -1 c 0,0.396 -0.22,0.715 -0.494,0.715 H 22.494 C 22.22,17 22,16.681 22,16.285 Z"/>
 <path style="fill:#4f4f4f" d="M 7.4961,5 C 7.2219,5 7,5.3187 7,5.7148 v 10.5697 c 0,0.396 0.2219,0.715 0.4961,0.715 H 8.5059 C 8.7801,16.9995 9,16.6805 9,16.2845 V 5.7148 C 9,5.3185 8.7801,4.9998 8.5059,4.9998 H 7.4961 Z M 10.494,5 C 10.22,5 10,5.3187 10,5.7148 v 10.5697 c 0,0.396 0.22,0.715 0.494,0.715 h 1.0117 c 0.274,0 0.494,-0.319 0.494,-0.715 V 5.7148 c 0,-0.3963 -0.22,-0.715 -0.494,-0.715 H 10.494 Z m 6,0 C 16.22,5 16,5.3187 16,5.7148 v 10.5697 c 0,0.396 0.22,0.715 0.494,0.715 h 1.0117 c 0.274,0 0.494,-0.319 0.494,-0.715 V 5.7148 c 0,-0.3963 -0.22,-0.715 -0.494,-0.715 H 16.494 Z m 3,0 C 19.22,5 19,5.3187 19,5.7148 v 10.5697 c 0,0.396 0.22,0.715 0.494,0.715 h 1.0117 c 0.274,0 0.494,-0.319 0.494,-0.715 V 5.7148 c 0,-0.3963 -0.22,-0.715 -0.494,-0.715 H 19.494 Z m 3,0 C 22.22,5 22,5.3187 22,5.7148 v 10.5697 c 0,0.396 0.22,0.715 0.494,0.715 h 1.0117 c 0.274,0 0.494,-0.319 0.494,-0.715 V 5.7148 c 0,-0.3963 -0.22,-0.715 -0.494,-0.715 H 22.494 Z"/>
 <path fill="#fff" opacity=".1" d="m7.4961 5c-0.2742 0-0.4961 0.3187-0.4961 0.7148v1c0-0.3961 0.2219-0.7148 0.4961-0.7148h1.0098c0.2742 0 0.4941 0.3187 0.4941 0.7148v-1c0-0.3961-0.2199-0.7148-0.4941-0.7148h-1.0098zm2.9979 0c-0.274 0-0.494 0.3187-0.494 0.7148v1c0-0.3961 0.22-0.7148 0.494-0.7148h1.0117c0.274 0 0.494 0.3187 0.494 0.7148v-1c0-0.3961-0.22-0.7148-0.494-0.7148h-1.0117zm6 0c-0.274 0-0.494 0.3187-0.494 0.7148v1c0-0.3961 0.22-0.7148 0.494-0.7148h1.0117c0.274 0 0.494 0.3187 0.494 0.7148v-1c0-0.3961-0.22-0.7148-0.494-0.7148h-1.0117zm3 0c-0.274 0-0.494 0.3187-0.494 0.7148v1c0-0.3961 0.22-0.7148 0.494-0.7148h1.0117c0.274 0 0.494 0.3187 0.494 0.7148v-1c0-0.3961-0.22-0.7148-0.494-0.7148h-1.0117zm3 0c-0.274 0-0.494 0.3187-0.494 0.7148v1c0-0.3961 0.22-0.7148 0.494-0.7148h1.0117c0.274 0 0.494 0.3187 0.494 0.7148v-1c0-0.3961-0.22-0.7148-0.494-0.7148h-1.0117z"/>
 <path style="fill:#ffffff;opacity:0.1" d="M 4.25 4 C 3.5575 4 3 4.6192606 3 5.3886719 L 3 6.3886719 C 3 5.6192606 3.5575 5 4.25 5 L 26.75 5 C 27.442592 5 28 5.6196452 28 6.3886719 L 28 5.3886719 C 28 4.6196452 27.442592 4 26.75 4 L 4.25 4 z"/>
</svg>
